X:9
T:Boys on their Bikes, The
M:6/8
L:1/8
C:Taz Tarry 11th June 2004
Q:3/8=115
K:G
|:ded e2d|c3 E3|FGA B2 A|GFE DFA|
d^cd e2d|c3 E3|cBA E2 F|1 AGF G3:|2 AGF GAB||
K:D
|:d3 B3|GFG G2 z|g3 f3|edc d2 z|
gfe d=cB|A=ce a3|gec ABc|1dfe dBc :|2 d3 d3||

